Papirus/22x22/panel/insync-share.svg

<?xml version="1.0" encoding="UTF-8" standalone="no"?>
<svg xmlns:dc="http://purl.org/dc/elements/1.1/" xmlns:cc="http://creativecommons.org/ns#" xmlns:rdf="http://www.w3.org/1999/02/22-rdf-syntax-ns#" xmlns:svg="http://www.w3.org/2000/svg" xmlns="http://www.w3.org/2000/svg" id="svg2" viewBox="0 0 1624.0097 1624.0095" version="1.1" width="22" height="22" xml:space="preserve" style="clip-rule:evenodd;fill-rule:evenodd;image-rendering:optimizeQuality;shape-rendering:geometricPrecision;text-rendering:geometricPrecision">
    <metadata id="metadata20">
        <rdf:RDF>
            <cc:Work rdf:about="">
                <dc:format>
                    image/svg+xml
                </dc:format>
                <dc:type rdf:resource="http://purl.org/dc/dcmitype/StillImage"/>
                <dc:title/>
            </cc:Work>
        </rdf:RDF>
    </metadata>
    <defs id="defs4">
        <style id="style6" type="text/css">
            <![CDATA[
    .fil2 {fill:#11A861}
    .fil0 {fill:#3777E3}
    .fil1 {fill:#FFCF63}
   ]]>
        </style>
    </defs>
    <path id="path10" transform="scale(73.818621,73.818621)" d="M 8.5761719 3 L 14.292969 13.064453 L 19.736328 13.064453 L 16.845703 7.9921875 A 3.0000154 3.0000154 0 0 1 14 5 A 3.0000154 3.0000154 0 0 1 14.345703 3.6074219 L 14 3 L 8.5761719 3 z M 7.7128906 3.5078125 L 2 13.599609 L 4.7148438 18.488281 L 10.470703 8.3613281 L 7.7128906 3.5078125 z M 8.3808594 14.064453 L 5.5761719 19 L 17 19 L 19.705078 14.064453 L 8.3808594 14.064453 z " style="fill:#ffffff;fill-opacity:1;fill-rule:evenodd;opacity:1"/>
    <path id="path16" d="m 1402.5772,369.12374 a 147.64,147.64 0 0 1 -295.27,0 147.64,147.64 0 1 1 295.27,0 z" style="color:#000000;fill:#5294e2;fill-rule:nonzero;fill-opacity:1"/>
</svg>

<?xml version="1.0" encoding="UTF-8" standalone="no"?>
<svg id="svg2" xmlns:rdf="http://www.w3.org/1999/02/22-rdf-syntax-ns#" style="image-rendering:optimizeQuality;text-rendering:geometricPrecision;shape-rendering:geometricPrecision" xmlns="http://www.w3.org/2000/svg" fill-rule="evenodd" xml:space="preserve" viewBox="0 0 1624.0097 1624.0095" width="22" version="1.1" clip-rule="evenodd" xmlns:cc="http://creativecommons.org/ns#" height="22" xmlns:dc="http://purl.org/dc/elements/1.1/">
    <metadata id="metadata20">
        <rdf:RDF>
            <cc:Work rdf:about="">
                <dc:format>
                    image/svg+xml
                </dc:format>
                <dc:type rdf:resource="http://purl.org/dc/dcmitype/StillImage"/>
                <dc:title/>
            </cc:Work>
        </rdf:RDF>
    </metadata>
    <defs id="defs4">
        <style id="style6" type="text/css">
            <![CDATA[
    .fil2 {fill:#11A861}
    .fil0 {fill:#3777E3}
    .fil1 {fill:#FFCF63}
   ]]>
        </style>
    </defs>
    <path id="path10" d="m8.5762 3l5.7168 10.064h5.443l-2.89-5.0718a3 3 0 0 1 -2.846 -2.9922 3 3 0 0 1 0.346 -1.3926l-0.346-0.6074h-5.4238zm-0.8633 0.5078l-5.7129 10.092 2.7148 4.888 5.7562-10.127-2.7581-4.8532zm0.668 10.556l-2.8047 4.936h11.424l2.705-4.936h-11.324z" fill-rule="evenodd" transform="scale(73.819)" fill="#fff"/>
    <path id="path16" style="color:#000000" d="m1402.6 369.12a147.64 147.64 0 0 1 -295.27 0 147.64 147.64 0 1 1 295.27 0z" fill-rule="nonzero" fill="#5294e2"/>
</svg>
